!!!OTL: Tiao shui diao
!!!ARE: Asia, China,ÿShaanxi, Ziyang
!! I, 72
!!!SCT: C1405
!!!YEM: Copyright 1995, estate of Helmut Schaffrath.
**kern
*ICvox
*Ivox
*M2/4
*k[f#]
*G:
{8dd
8b
8dd
8b
=1
8dd
8b
4a
=2
4b
8dd
16b
16dd
=3
8dd
4b
8dd
=4
2b}
=5
{8dd
8b
8dd
16b
16dd
=6
4.ee
8b
=7
8ee
8dd
16b
16dd
8a
=8
2b}
=9
{8dd
8b
4ee
=10
8.b
16a
16g
16a
8g
=11
8e
4e
8g
=12
4a
8.b
16a
=13
2a}
==
!!!AGN: Xiaodiao
!!!ONB: ESAC (Essen Associative Code) Database: HUANG
!!!AMT: simple duple
!!!AIN: vox
!!!EED: Helmut Schaffrath
!!!EEV: 1.0
*-
!!!OTL: Siji quanlang
!!!ARE: Asia, China,ÿHunan, YueYang
!! I, 544
!!!SCT: C1468
!!!YEM: Copyright 1995, estate of Helmut Schaffrath.
**kern
*ICvox
*Ivox
*M2/4
*k[f#c#]
*D:
{8r
16ee
16dd
8a
8a
=1
8a
8f#
8r}
{16ee
16dd
=2
8dd
4ee
8dd
=3
2dd
=4
8dd]
16ee
16dd
8ee
16dd
16b}
=5
{16r
16f#
16f#
16a
16a
16dd
8f#
=6
8f#]
16a
16b
16a
16dd
8a
=7
16a]
16b
8f#
4d
=8
2d]}
=9
{16r
16dd
16ff#
16ee
16.dd
32ee
16dd
16ee
=10
4ee
16dd
16ee
8ee
=11
4.dd
8ee
=12
16ee
16ff#
8dd
8a
16a
16f#}
=13
{4r
16a
16dd
16a
16f#
=14
16a
8.f#
16a
16a
16a
16ee
=15
2dd
=16
8dd]
8ee}
{8r
16f#
16a
=17
16a
16b
8a
8a
8a
=18
8f#
4d
8f#}
=19
{8a
4f#
8f#
=20
4a
8a
16a
16f#
=21
8f#
16e
16f#
4d
=22
2d]}
=23
{4r
16ee
16dd
16dd
16ee
=24
4ee}
{16ee
16dd
16dd
16ee
=25
4ee
16ee
16dd
8dd
=26
2dd]
=27
8dd]
16ee
16dd
8ee
16dd
16b}
=28
{16r
16f#
16f#
16a
16a
16dd
8f#
=29
8f#]
16a
16b
16a
16dd
8a
=30
16a]
16b
8f#
4d
=31
2d]}
=32
{8r
16dd
16ee
16dd
16ee
8ee
=33
4ee
4dd
=34
16dd]
16b
8ee
8ee
16ee
16ff#
=35
8a
16a
16f#
4r}
=36
{4r
16a
16f#
16a
16f#
=37
16a
8.f#
16a
16a
16a
16ee
=38
2dd
=39
8dd]
8ee}
{16a
16a
16d
16f#
=40
16d
16e
4d
8f#
=41
24a
24f#
24d
4f#
8a
=42
4dd
8.a
16f#
=43
8f#
8e
4d
=44
2d]}
==
!!!AGN: Xiaodiao. Qizi quanfu ai laodong
!!!ONB: ESAC (Essen Associative Code) Database: HUANG
!!!AMT: simple duple
!!!AIN: vox
!!!EED: Helmut Schaffrath
!!!EEV: 1.0
*-
